X: 214
T:When the tide comes in
M:4/4
L:1/8
C:James Hill
R:Hornpipe
Z:Andrew Pickering, 17/2/1999
K:Am
ed|cBAG ABcd|e2 A2 Ac'ba|g2 ed cdec|d2 BA G2 ed|
cBAG ABcd|ea^gb a3 e|fedc dfed|c2 A2 A2:|
ab|c'aec aecA|EAce abc'a|bgdB gdBG|DGBd gdBd|
cBAG ABcd|ea^gb a3 e|fedc dfed|c2 A2 A2:|
<end>
<start>
